X:2
T:Agnes
B:Goulding and d'Almaine's Twenty-four Country Dances For the year 1826.
L:1/16
M:2/4
U:l = !accent!
U:w = !wedge!
N:Part of 'Leise leise fromme weise' from Der Freischuet
Z:Richard Robinson <URL:http://www.qualmograph.org.uk/contact.html>
F:http://richardrobinson.tunebook.org.uk/Tune/3546
K:F
% - - - - - - - - - - - - - - - - - - - - - - - - -
c4 (=Bcdc) | f4 (efgf) | a4 (gfed) | (d4 c2) F2 |\
G2A2B2=B2 | c2 "^>"f4 (ed) | d2c4 E2 | F4 z2|]
fg |\
"^>"a2gf (ef)cA | (dc).B.G (dc).B.G | \
"^>"a2gf (ef).c.A | (dc).B.G (dc).B.G |
agfe dcBA | GABc defg | a2gf efge | f2F2 F4 |]
% - - - - - - - - - - - - - - - - - - - - - - - - -
%%begintext align
%% Lead down the middle, up again, right & left at top
%%endtext
